X: 4
T: The Trip To Sligo
R: jig
M: 6/8
L: 1/8
K: Emin
|: B, |[B,2E2] c BGE | D2 d AFD | [B,2E2] c BAF | GFE e2 (e/f/ |
g)fe dcB | (A/B/A).G FED | EFG ABc | BGF E2 :|
|: B |eBe (g<b).e | dAd (f<a).f | eBe (g<b).e | (f<a).f (g<b).e |
(f<a).f gfe | d({e/d/}c)d AFD | EFG ABc | BGF E2 :|


Tune 397	Setting 23898

